!!!COM: Bach, Johann Sebastian
!!!CDT: 1685/3/-1750/7/28
!!!OPR@@DE: Das wohltemperierte Klavier
!!!OPR@EN: The Well-Tempered Clavier
!!!OTL: The Well-Tempered Clavier, Book 1, Fugue 16 in G minor
!!!SCT: BWV 861b
!!!parts: 4
!!!RNB: The texture increases to five voices in the final two measures.
**kern	**kern	**kern	**kern
*staff2	*staff2	*staff1	*staff1
*clefF4	*clefF4	*clefF4	*clefG2
*k[b-e-]	*k[b-e-]	*k[b-e-]	*k[b-e-]
*M4/4	*M4/4	*M4/4	*M4/4
*g:	*g:	*g:	*g:
*MM60	*MM60	*MM60	*MM60
=1	=1	=1	=1
1r	1r	8r	1r
.	.	8d	.
.	.	8e-L	.
.	.	8GJ	.
.	.	4F#	.
.	.	4G	.
=2	=2	=2	=2
1r	1r	8r	2r
.	.	16AL	.
.	.	16B-J	.
.	.	8cL	.
.	.	16B-	.
.	.	16AJ	.
.	.	4B-	8r
.	.	.	8g
.	.	4G	8b-L
.	.	.	8dJ
=3	=3	=3	=3
1r	1r	8r	4c#
.	.	16AL	.
.	.	16GJ	.
.	.	8FL	4d
.	.	16G	.
.	.	16AJ	.
.	.	8B-L	8r
.	.	8GJ	16enL
.	.	.	16fJ
.	.	8EnL	8gL
.	.	8c#J	16f
.	.	.	16eJ
=4	=4	=4	=4
1r	1r	4.d	8fL
.	.	.	16g
.	.	.	16aJ
.	.	.	8b-L
*	*	*clefG2	*
.	.	8en	16a
.	.	.	16gJ
.	.	8fL	8aL
.	.	8eJ	16b-
.	.	.	16ccJ
.	.	8fL	8ddL
.	.	8gJ	16cc
.	.	.	16b-J
=5	=5	=5	=5
8r	1r	8aL	4cc
8D	.	16g	.
.	.	16f#J	.
8E-L	.	8gL	4b-
8GGJ	.	8c#J	.
4FF#	.	8d	8aL
.	.	4a	16dd
.	.	.	16ccnJ
4GG	.	.	8b-L
.	.	16gL	16cc
.	.	16f#J	16ddJ
=6	=6	=6	=6
8r	2r	4g	8ee-L
16AAL	.	.	8ccJ
16BB-J	.	.	.
8CL	.	8f#L	8aL
16BB-	.	8aJ	8ff#J
16AAJ	.	.	.
4BB-	8r	4dd	4gg
.	8G	.	.
4GG	8B-L	4r	4r
.	8DJ	.	.
=7	=7	=7	=7
8r	4C#	1r	8r
16AAL	.	.	8en
16GGJ	.	.	.
8FFL	4D	.	8aL
16GG	.	.	8fJ
16AAJ	.	.	.
8BB-L	8r	.	4d
8GGJ	16EnL	.	.
.	16FJ	.	.
8EEnL	8GL	.	8c#L
8C#J	16F	.	[8eJ
.	16EJ	.	.
=8	=8	=8	=8
1D	8FL	1r	8e]L
.	16G	.	8dJ
.	16AJ	.	.
.	8B-L	.	[4g
.	16A	.	.
.	16GJ	.	.
.	8AL	.	16g]L
.	.	.	16f#
.	16B-	.	16g
.	16cJ	.	16aJ
.	8dL	.	[4b-
.	16c	.	.
.	16B-J	.	.
=9	=9	=9	=9
8EnL	2.c	1r	4b-]
16A	.	.	.
16GJ	.	.	.
8F#L	.	.	[4a
16G	.	.	.
16AJ	.	.	.
8BB-L	.	.	16a]L
.	.	.	16d
16C	.	.	16en
16DJ	.	.	16f#J
8E-L	8B-L	.	[4g
16D	8e-J	.	.
16CJ	.	.	.
=10	=10	=10	=10
2D	16AL	1r	8g]L
.	16B-	.	.
.	16A	.	16f#
.	16B-J	.	16gJ
.	8cL	.	8aL
.	16B-	.	16g
.	16AJ	.	16f#J
4.GG	8B-L	.	4.g
.	16c	.	.
.	16dJ	.	.
.	[4e-	.	.
8AA	.	.	8cc
=11	=11	=11	=11
8BB-L	4e-]	1r	8fL
8FJ	.	.	16g
.	.	.	16aJ
8GL	4d	.	2b-
8DJ	.	.	.
8E-L	2c	.	.
16D	.	.	.
16E-J	.	.	.
8FL	.	.	4a
8FFJ	.	.	.
=12	=12	=12	=12
4BB-	4d	8r	4b-
.	.	8f	.
4r	4r	8gL	4r
.	.	8B-J	.
2r	8r	4A	2r
.	16FL	.	.
.	16E-J	.	.
.	8DL	4B-	.
.	16E-	.	.
.	16FJ	.	.
=13	=13	=13	=13
2r	8GL	8r	1r
.	8E-J	16cL	.
.	.	16dJ	.
.	8CL	8e-L	.
.	8AJ	16d	.
.	.	16cJ	.
8r	[2B-	16dL	.
.	.	16en	.
8BB-	.	16d	.
.	.	16eJ	.
8DL	.	8fL	.
8FFJ	.	16e	.
.	.	16dJ	.
=14	=14	=14	=14
4EEn	8B-]L	4.g	1r
.	16c	.	.
.	16B-J	.	.
4FF	8AL	.	.
.	16B-	16fL	.
.	16cJ	16enJ	.
8r	8dL	4f	.
16GGL	8B-J	.	.
16AAJ	.	.	.
8BB-L	8GL	8eL	.
16AA	8enJ	[8b-J	.
16GGJ	.	.	.
=15	=15	=15	=15
4AA	8.fL	8b-]	8r
.	.	4a	8cc
.	16e-J	.	.
4BB-	4d	.	8ddL
.	.	16gL	8fJ
.	.	16aJ	.
8r	4.c	8b-L	4en
16CL	.	16a	.
16BB-J	.	16gJ	.
8AAL	.	[4a	4f
16BB-	16dL	.	.
16CJ	16cJ	.	.
=16	=16	=16	=16
8DL	2B-	8a]L	8r
8BB-J	.	16g	16gL
.	.	16fJ	16aJ
8GGL	.	8enL	8b-L
8EnJ	.	[8cJ	16a
.	.	.	16gJ
[2F	4A	8c]L	8aL
.	.	16d	16b-
.	.	16e-J	16ccJ
.	16r	8.fL	8ddL
.	16B-L	.	.
.	16c	.	16cc
.	16dJ	16gJ	16b-J
=17	=17	=17	=17
8F]L	8e-L	4a	8ccL
8FJ	16f	.	16dd
.	16e-J	.	16ccJ
8GL	8dL	4g	8b-L
8BB-J	[8GJ	.	16cc
.	.	.	16ddJ
4AA	8G]L	8r	8ee-L
.	8FJ	8cc	16ff
.	.	.	16ee-J
4BB-	8B-L	8ddL	8ddL
.	8A-J	8fJ	16ee-
.	.	.	16ffJ
=18	=18	=18	=18
8r	4G	4e-	8ggL
16CL	.	.	8ee-J
16DJ	.	.	.
8E-L	8AnL	4f	8ccL
16D	8cJ	.	8aaJ
16CJ	.	.	.
8DL	8F	8r	8bb-
16C	8r	16fL	8r
16BB-J	.	16gJ	.
8CL	4r	8a-L	4r
8DJ	.	16g	.
.	.	16fJ	.
=19	=19	=19	=19
8E-L	1r	8g	8r
16D	.	8r	16ggL
16CJ	.	.	16aa-J
8DL	.	4r	8bb-L
8EnJ	.	.	16aa-
.	.	.	16ggJ
8FL	.	8r	8aa-L
16FF	.	16ffL	16aa-
16GGJ	.	16ee-J	16ggJ
8AA-L	.	8ddL	8ffL
16GG	.	16ee-	16gg
16FFJ	.	16ffJ	16aa-J
=20	=20	=20	=20
8GGL	1r	8bnL	8dd
8GJ	.	16ee-	4gg
.	.	16ddJ	.
8A-L	.	8ccL	.
8CJ	.	16dd	16ffL
.	.	16ee-J	16ee-J
4BBn	.	8fL	4.dd
.	.	16g	.
.	.	16fJ	.
4C	.	8e-L	.
.	.	16f	16ccL
.	.	16gJ	16bnJ
=21	=21	=21	=21
8r	1r	8a-L	4cc
16DL	.	8fJ	.
16E-J	.	.	.
8FL	.	8dL	8bnL
16E-	.	8bnJ	8ddJ
16DJ	.	.	.
8E-L	.	4cc	8gL
8EnJ	.	.	8ggJ
8FL	.	8r	8aa-L
8F#J	.	8e-	8ccJ
=22	=22	=22	=22
16GL	1r	8dL	4bn
16A-	.	.	.
16G	.	16e-	.
16FnJ	.	16fJ	.
8E-L	.	8gL	4cc
16F	.	16an	.
16GJ	.	16bnJ	.
8A-L	.	8ccL	8r
8FJ	.	16b	16ddL
.	.	16ccJ	16ee-J
8DL	.	8ddL	8ffL
8BnJ	.	[8gJ	16ee-
.	.	.	16ddJ
=23	=23	=23	=23
[4c	1r	8g]L	16ee-L
.	.	.	16dd
.	.	16cc	16ee-
.	.	16ddJ	16ffJ
16c]L	.	8ee-L	8gg
16d	.	.	.
16c	.	8gJ	8r
16B-J	.	.	.
16AL	.	4f#	8r
16D	.	.	.
16C	.	.	16ddL
16DJ	.	.	16ccJ
16E-L	.	[4g	8b-L
16D	.	.	.
16C	.	.	16cc
16BB-J	.	.	16ddJ
=24	=24	=24	=24
8AAL	1r	8g]L	16ee-L
.	.	.	16dd
8CJ	.	16a	16cc
.	.	16b-J	16b-J
8DL	.	8ccL	8aL
8DDJ	.	16b-	8ff#J
.	.	16aJ	.
8GGL	.	16b-L	8gg
.	.	16d	.
16G	.	16en	8r
16AJ	.	16f#J	.
8B-L	.	[4g	16r
.	.	.	16ddL
16A	.	.	16cc
16GJ	.	.	16b-J
=25	=25	=25	=25
8dL	1r	16g]L	[4a
.	.	16g	.
16D	.	16fn	.
16E-J	.	16e-J	.
8FL	.	[4d	16a]L
.	.	.	16b-
16E-	.	.	16cc
16DJ	.	.	16ddJ
8EE-L	.	16d]L	[4g
.	.	16B-	.
16E-	.	16c	.
16FJ	.	16dJ	.
8GL	.	[4e-	16g]L
.	.	.	16b-
16F	.	.	16a-
16E-J	.	.	16gJ
=26	=26	=26	=26
8B-L	1r	16e-]L	[4f
.	.	16e-	.
16BB-	.	16d	.
16CJ	.	16cJ	.
8DL	.	[4B-	16f]L
.	.	.	16g
16C	.	.	16a-
16BB-J	.	.	16b-J
8CCL	.	16B-]L	[4e-
.	.	16G	.
16C	.	16An	.
16DJ	.	16BnJ	.
8E-L	.	[4c	16e-]L
.	.	.	16g
16D	.	.	16f
16CJ	.	.	16e-J
=27	=27	=27	=27
8GL	1r	16c]L	[4d
.	.	16c	.
16GG	.	16B-	.
16AAJ	.	16AJ	.
8BB-L	.	[4G	16d]L
.	.	.	16d
16AA	.	.	16en
16GGJ	.	.	16f#J
2E-	.	16G]L	[4g
.	.	16G	.
.	.	16A	.
.	.	16B-J	.
.	.	8cL	16g]L
.	.	.	16b-
.	.	8c#J	16a
.	.	.	16gJ
=28	=28	=28	=28
4D	2r	4d	8f#L
.	.	.	8ddJ
4r	.	4r	8ee-L
.	.	.	8gJ
2r	8r	8r	4f
.	8d	16ddL	.
.	.	16ccJ	.
.	8e-L	8b-L	4g
.	8GJ	16cc	.
.	.	16ddJ	.
=29	=29	=29	=29
8r	4F#	8ee-L	8r
8D	.	8ddJ	16aL
.	.	.	16b-J
8E-L	4G	8ccL	8ccL
8GGJ	.	8ee-J	16b-
.	.	.	16aJ
4FF#	8r	8a	8dd
.	16AL	8r	8r
.	16B-J	.	.
4AA	8cL	4r	4r
.	16B-	.	.
.	16AJ	.	.
=30	=30	=30	=30
8DDL	[2B-	8r	2r
16D	.	16f#L	.
16CJ	.	16gJ	.
8BB-L	.	8aL	.
16C	.	16g	.
16DJ	.	16f#J	.
[2E-	8B-]L	[2g	8r
.	16Bn	.	16ddL
.	16AJ	.	16ee-J
.	8GL	.	8ffnL
.	16A	.	16ee-
.	16BJ	.	16ddJ
=31	=31	=31	=31
8E-]L	4c	2g]	[4ee-
16E-	.	.	.
16DJ	.	.	.
8CL	4r	.	16ee-]L
.	.	.	16dd
16D	.	.	16cc
16E-J	.	.	16b-J
8FF#L	2r	8r	4a
16AA	.	8dd	.
16GGJ	.	.	.
8FF#L	.	8ee-L	8r
16GG	.	8gJ	16ee-L
16AAJ	.	.	16ddJ
=32	=32	=32	=32
8DDL	1r	4f#	8ccL
16D	.	.	16dd
16CJ	.	.	16ee-J
8BB-L	.	4g	8ddL
16C	.	.	16een
16DJ	.	.	16ff#J
8E-L	.	8r	8ggL
8CJ	.	16aL	16ff#
.	.	16b-J	16ggJ
8AAL	.	8ccL	[4aa
8F#J	.	16b-	.
.	.	16aJ	.
=33	=33	=33	=33
!! Five-voice material:
!! (Note that the tie in spine 4 above connects with spine 5 below.)
*	*	*^	*
8GL	8r	4.b-	4.b-	8aa]L
8FnJ	8d	.	.	8ddJ
8E-L	8e-L	.	.	8ggL
8DJ	8GJ	8bn	8g	8ffJ
8CL	4F#	8cc	8a	8ee-L
8BB-J	.	8r	8r	8ddJ
8AAL	4G	8g	8d	8ccL
8GGJ	.	8r	8r	8b-J
=34	=34	=34	=34	=34
8CL	8r	4g	4e-	2a
8AAJ	16AL	.	.	.
.	16B-J	.	.	.
8DL	8cL	4f#	4d	.
8DDJ	16B-	.	.	.
.	16AJ	.	.	.
2GG;	2Bn;	2g;	2d;	2g;
==	==	==	==	==
*-	*-	*-	*-	*-
!!!OTA: Das wohltemperirte Clavier
!!!OCY: Deutschland
!!!PPP: Coethen; Cothen
!!!ODT: <1722//
!!!PDT: 1722
!!!AFR: fuga; fugue
!!!AST: polyphony
!!!AMT: simple quadruple
!!!SCA: Bach-Werke-Verzeichnis
!!!YOR: Bach-Gesellschaft Ausgabe, Band 14
!!!YOO: Breitkopf und Härtel
!!!YOY: 1866
!!!YOE: Franz Kroll (1820-1877)
!!!AIN: cemba; clavi
!!!YEC: Copyright 1994, David Huron
!!!YEM: Rights to all derivative electronic formats reserved.
!!!ENC: David Huron
!!!END: 1986/11/21
!!!EED: David Huron
!!!YER: 1994/08/10
!!!EED2: Craig Stuart Sapp (notational niceties)
!!!EEV: 2020/09/19
!!!EFL: 16/48
